packages/sources/icons/src/vitamix/safari-line.svg

<svg width="16" height="16" viewBox="0 0 16 16" fill="none" xmlns="http://www.w3.org/2000/svg">
<path fill-rule="evenodd" clip-rule="evenodd" d="M1.33334 8C1.33334 11.682 4.318 14.6667 8 14.6667C11.682 14.6667 14.6667 11.682 14.6667 8C14.6667 4.318 11.682 1.33333 8 1.33333C4.318 1.33333 1.33334 4.318 1.33334 8ZM11.6647 4.12533C10.842 3.34526 9.79157 2.84864 8.66666 2.708V4H7.33333V2.708C6.38397 2.82625 5.48423 3.19895 4.72933 3.78666L5.64266 4.7L4.7 5.64266L3.78667 4.72933C3.19896 5.48423 2.82625 6.38397 2.708 7.33333H4V8.66666H2.708C2.84864 9.79157 3.34527 10.842 4.12533 11.6647L7.05733 7.05733L11.6647 4.12533ZM11.8747 4.33534L8.94269 8.94267L4.33536 11.8747C5.15798 12.6547 6.20845 13.1514 7.33336 13.292V12H8.66669V13.292C9.61606 13.1737 10.5158 12.801 11.2707 12.2133L10.3574 11.3L11.3 10.3573L12.2134 11.2707C12.8011 10.5158 13.1738 9.61603 13.292 8.66667H12V7.33334H13.292C13.1514 6.20843 12.6548 5.15795 11.8747 4.33534Z" fill="#001018"/>
</svg>

<svg width="16" height="16" fill="none" xmlns="http://www.w3.org/2000/svg"><path fill-rule="evenodd" clip-rule="evenodd" d="M1.333 8a6.667 6.667 0 1 0 13.333 0A6.667 6.667 0 0 0 1.333 8zm10.332-3.875a5.316 5.316 0 0 0-2.998-1.417V4H7.333V2.708a5.295 5.295 0 0 0-2.604 1.079l.914.913-.943.943-.913-.914a5.307 5.307 0 0 0-1.079 2.604H4v1.334H2.708a5.316 5.316 0 0 0 1.417 2.998l2.932-4.608 4.608-2.932zm.21.21L8.943 8.943l-4.608 2.932a5.315 5.315 0 0 0 2.998 1.417V12h1.334v1.292a5.307 5.307 0 0 0 2.604-1.079l-.914-.913.943-.943.913.914a5.306 5.306 0 0 0 1.079-2.604H12V7.333h1.292a5.315 5.315 0 0 0-1.417-2.998z" fill="#001018"/></svg>
